X: 408
%
T: Miss Johnstone
C:James Scott Skinner
O:Scotland
B:Keith Norman MacDonald : "The Skye collection of the best reels & strathspeys extant" : 1887
Z:Ralph Palmer
R:Reel
M:C|
L:1/8
K:A
E | LA2 eA (cd).e.c | LB2 =gd (BG).G.B | LA2 eA (cd).e.c | A2 ae (cA) A :| f | .e(agf) .e.A.c.A | .B(=gfe) .d.G.B.G |
.A(agf) .e.A.c.A | .d.f.e.g .aA-A.f | !ff!.e.a.g.f .e.A.c.A | .B.=g.f.e .d.G.B.G | LA2 eA (cd).e.c | Ld.f Le.a cAA |]


